src/assets/outline/Youtube.svg

<?xml version="1.0" encoding="UTF-8"?>
<svg width="24" height="24" viewBox="0 0 24 24" xmlns="http://www.w3.org/2000/svg">
 <path d="m17 20.75h-10c-3.44 0-5.75-2.31-5.75-5.75v-6c0-3.44 2.31-5.75 5.75-5.75h10c3.44 0 5.75 2.31 5.75 5.75v6c0 3.44-2.31 5.75-5.75 5.75zm-10-16c-2.58 0-4.25 1.67-4.25 4.25v6c0 2.58 1.67 4.25 4.25 4.25h10c2.58 0 4.25-1.67 4.25-4.25v-6c0-2.58-1.67-4.25-4.25-4.25h-10z"/>
 <path d="m10.59 15.529c-0.29 0-0.57-0.07-0.81996-0.21-0.58-0.33-0.92004-1-0.92004-1.83v-2.96c0-0.82996 0.33004-1.5 0.92004-1.83 0.57996-0.33 1.33-0.27002 2.04 0.15998l2.4701 1.48c0.68 0.41 1.0699 1.0201 1.0699 1.6701s-0.3899 1.2599-1.0699 1.6699l-2.4701 1.48c-0.41 0.24-0.83 0.37-1.22 0.37zm0-5.56c-0.04 0-0.07 0.00999-0.09 0.01999-0.07 0.03997-0.15 0.21997-0.15 0.52997v2.9601c0 0.3 0.08 0.48 0.15 0.53 0.08 0.04 0.2701 0.0199 0.5301-0.1401l2.4699-1.4799c0.25-0.15 0.34-0.3001 0.34-0.3901s-0.09-0.23-0.34-0.39l-2.4699-1.48c-0.18-0.11-0.3401-0.15996-0.4401-0.15996z"/>
</svg>

<svg width="24" height="24" viewBox="0 0 24 24"  xmlns="http://www.w3.org/2000/svg">
<path d="M17 20.75H7C3.56 20.75 1.25 18.44 1.25 15V9C1.25 5.56 3.56 3.25 7 3.25H17C20.44 3.25 22.75 5.56 22.75 9V15C22.75 18.44 20.44 20.75 17 20.75ZM7 4.75C4.42 4.75 2.75 6.42 2.75 9V15C2.75 17.58 4.42 19.25 7 19.25H17C19.58 19.25 21.25 17.58 21.25 15V9C21.25 6.42 19.58 4.75 17 4.75H7Z" />
<path d="M10.5901 15.5292C10.3001 15.5292 10.0201 15.4592 9.77014 15.3192C9.19014 14.9892 8.8501 14.3192 8.8501 13.4892V10.5292C8.8501 9.69924 9.18014 9.02925 9.77014 8.69925C10.3501 8.36925 11.1001 8.42923 11.8101 8.85923L14.2802 10.3392C14.9602 10.7492 15.3501 11.3593 15.3501 12.0093C15.3501 12.6593 14.9602 13.2692 14.2802 13.6792L11.8101 15.1592C11.4001 15.3992 10.9801 15.5292 10.5901 15.5292ZM10.5901 9.96924C10.5501 9.96924 10.5201 9.97923 10.5001 9.98923C10.4301 10.0292 10.3501 10.2092 10.3501 10.5192V13.4793C10.3501 13.7793 10.4301 13.9593 10.5001 14.0093C10.5801 14.0493 10.7702 14.0292 11.0302 13.8692L13.5001 12.3893C13.7501 12.2393 13.8401 12.0892 13.8401 11.9992C13.8401 11.9092 13.7501 11.7692 13.5001 11.6092L11.0302 10.1292C10.8502 10.0192 10.6901 9.96924 10.5901 9.96924Z" />
</svg>
